Adwaita++-Light/panel/16/flameshot-tray.svg

<svg height="16" width="16" xmlns="http://www.w3.org/2000/svg">
  <g fill="#444">
    <path d="m15 3s-.15 1.6389-3.01 2.9219c-.015.7372-.106 1.4875-.355 2.209-.384 1.1135-1.193 2.1631-2.4729 2.6971-1.5035.628-2.424 1.382-3.0176 2.08.9153-.506 2.2235-.958 4.1115-1.152 4.282-.44 4.744-8.756 4.744-8.756z" opacity=".3"/>
    <path d="m10.119 1s.297 2.4145-2.3475 4.4785c.1408.5311.2337 1.0905.2285 1.6738-.0093 1.0357-.3524 2.1514-1.1855 3.0607v.002c-.6993.763-1.1329 1.435-1.4063 2.014.6982-.807 1.755-1.649 3.3691-2.3228 4.0367-1.684 1.3417-8.9062 1.3417-8.9062z"/>
    <path d="m2.486 8.501c3.0326-3.8211 2.3505-6.501 2.3505-6.501s3.8851 4.6551 1.2411 7.538c-2.9531 3.221-1.946 5.462-1.946 5.462s-3.38501-4.308-1.6456-6.499z"/>
  </g>
</svg>

<svg xmlns="http://www.w3.org/2000/svg" width="16" height="16" version="1.1">
 <defs>
  <style id="current-color-scheme" type="text/css">
   .ColorScheme-Text { color:#444444; } .ColorScheme-Highlight { color:#4285f4; }
  </style>
 </defs>
 <path style="opacity:0.3;fill:currentColor" class="ColorScheme-Text" d="M 15,3 C 15,3 14.85,4.6389 11.99,5.9219 11.975,6.6591 11.884,7.4094 11.635,8.1309 11.251,9.2444 10.442,10.294 9.1621,10.828 7.6586,11.456 6.7381,12.21 6.1445,12.908 7.0598,12.402 8.368,11.95 10.256,11.756 14.538,11.316 15,3 15,3 Z"/>
 <path style="fill:currentColor" class="ColorScheme-Text" d="M 10.119,1 C 10.119,1 10.416,3.4145 7.7715,5.4785 7.9123,6.0096 8.0052,6.569 8,7.1523 7.9907,8.188 7.6476,9.3037 6.8145,10.213 V 10.215 C 6.1152,10.978 5.6816,11.65 5.4082,12.229 6.1064,11.422 7.1632,10.58 8.7773,9.9062 12.814,8.2222 10.119,1 10.119,1 Z"/>
 <path style="fill:currentColor" class="ColorScheme-Text" d="M 2.486,8.501 C 5.5186,4.6799 4.8365,2 4.8365,2 4.8365,2 8.7216,6.6551 6.0776,9.538 3.1245,12.759 4.1316,15 4.1316,15 4.1316,15 0.74659,10.692 2.486,8.501 Z"/>
</svg>
